X:1
T:Le gorille
C:Georges Brassens, abc file by Bernard Loffet
L:1/8
Q:340
M:6/8
K:C
z4zc|[cC,]c[cC,][cC,]c[cC,]|[c2C,2][cC,][zC,]z[cC,]|[cC,]c[cC,][cC,]c[cC,]|[B2G,2][zG,][zG,]z[BG,]|[BG,]B[BG,][BG,]B[BG,]|[B2G,2][BG,][zG,]z[GC,]|[BG,]B[BG,][BG,]A[BG,]| \
[c2C,2]C,[zC,]z[GC,]|[cC,]c[cC,][cC,]c[cC,]|[c2C,2][cC,][zC,]z[GC,]|[cC,]c[cC,][cC,]A[cC,]|[B2G,2][zG,][zG,]z[GC,]|[BG,]B[BG,][BG,]B[BG,]|[B2G,2][BG,][zG,]z[GC,]| \
[BG,]B[BG,][BG,]A[BG,]|[c2C,2]C,[cC,]e[gC,]|[c'2C,2]C,C,2C,|[g2G,2]G,G,2G,|[c2C,2]C,C,2C,|[G2G,2]G,[GG,]A[BD,]|[c6C,6]| \
Z:Created with TablEdit http://www.tabledit.com/ by Bernard Loffet
